X: 438
T: a Bright Evening   #2
N: Irish title: tra.tnona geal
R: air, march
%S: s:3 b:12(4+4+4)
B: O'Neill's 1850 #438
O: M.O'Brien
Z: henrik.norbeck@mailbox.swipnet.se
N: Compacted via repeats and multiple endings [JC]
N: Compacted by using labels and play order [JC]
P: Play AB1 B2A
Q: "With spirit"
M: 2/4
L: 1/8
K: G
"^A"[|] D/E/ | G>A Bd | eg dB/A/ | GE/D/ GG | G3 Hx \
"^B"|: B/d/ | gf ef/g/ | af dB/d/ |1 ed/B/ d/e/f/a/ | g3 :|2 e>d B/A/B/d/ | "^->A"e3 |]
